!!!OTL: IST ES DENN AUCH WIRKLICH WAHR
!!!ARE: Europa, Mitteleuropa, Deutschland, Ober - Lahnkreis, Dillkreis
!!!SCT: E0368
!!!YEM: Copyright 1995, estate of Helmut Schaffrath.
**kern
*ICvox
*Ivox
*M4/4
*k[b-]
*F:
=1
{4f
4c
4f
4a
=2
8g
8f
8e
8d
2c}
=3
{4g
4g
4g
4g
=4
4g
4cc
4cc
4b-}
=5
{4a
4a
4a
4a
=6
8a
8g
8a
8b-
2cc}
=7
{4.dd
8cc
4b-
4g
=8
2g
4f
4r}
=9
{4f
8.a
16g
4f
8a
8a
=10
8g
8a
8b-
8a
4g
4r}
=11
{4g
8b-
8a
4g
8a
8b-
=12
8cc
8dd
8cc
8b-
4a
4r}
=13
{4a
4a
4a
4a
=14
8a
8g
8a
8b-
2cc}
=15
{4.dd
8cc
4b-
4g
=16
2g
4f
4r}
==
!!!AGN: historisches Lied, Deutsch - Franzoesischer Krieg (1870)
!!!ONB: ESAC (Essen Associative Code) Database: ERK1
!!!AMT: simple quadruple
!!!AIN: vox
!!!EED: Helmut Schaffrath
!!!EEV: 1.0
*-
